X:111
M:6/8
L:1/8
K:D
|:A|^cAc efg|AGBc d2f|geb gfe|df^A B2=A|FDF AFA|dAd (f/g/a)g|fed ABc|(d3 d2):|

